svg/crop_square.svg

<svg xmlns="http://www.w3.org/2000/svg" viewBox="0 0 24 24"><path d="M18 18H6V6h12m0-2H6a2 2 0 0 0-2 2v12a2 2 0 0 0 2 2h12a2 2 0 0 0 2-2V6a2 2 0 0 0-2-2"/></svg>

<?xml version="1.0" encoding="UTF-8"?><!DOCTYPE svg PUBLIC "-//W3C//DTD SVG 1.1//EN" "http://www.w3.org/Graphics/SVG/1.1/DTD/svg11.dtd"><svg xmlns="http://www.w3.org/2000/svg" xmlns:xlink="http://www.w3.org/1999/xlink" version="1.1" id="mdi-crop-square" width="24" height="24" viewBox="0 0 24 24"><path d="M18,18H6V6H18M18,4H6A2,2 0 0,0 4,6V18A2,2 0 0,0 6,20H18A2,2 0 0,0 20,18V6C20,4.89 19.1,4 18,4Z" /></svg>
